X:1
T:Eternal wisdom, thee we praise
T:Eternal wisdom, thee we praise - Borden (Thomas Clark)
C:Thomas Clark
Z:p2, A Fifth Set of
Z:Psalm & Hymn Tunes,
Z:London: [c1809]
%%score [ 1 2 3 4 ]
L:1/8
M:2/4
K:D
V:1 treble nm="Air" snm="S."
V:2 treble nm="[Alto]" snm="A."
V:3 treble-8 transpose=-12 nm="Tenor" snm="T."
V:4 bass nm="[Bass]" snm="B."
V:1
 A2 | d2 d2 | B2 B2 | (AG) (FE) | F4 | A2 fe | d2 c2 | B4 | z2 A2 | (AG) (FG) | A2 d2 | (dB) (ed) | %12
w: Thy|glo- ries|blaze all|na- * ture _|round,|And strike the|ga- zing|sight,|Through|skies, _ and _|seas, and|so- * lid _|
w: E-|ter- nal|wis- dom,|thee _ we _|praise,|Thee the cre-|a- tion|sings;|With|thy _ lov’d _|name, rocks,|hills _ and _|
w: Thy|hand how|wide it|spread _ the _|sky!|How glo- rious|to be-|hold!|Ting’d|with _ a _|blue of|heav’n- * ly _|
 (d2 !fermata!c)e | ff f(f/e/) | d3 d | ee e(e/d/) | c2 A2 | d2 e2 | c3 c | d4 |] %20
w: ground, _ With|ter- ror and de- *|light, with|ter- ror and de- *|light, with|ter- ror|and de-|light.|
w: seas _ And|heav’n’s high pa- lace _|rings, and|heav’n’s high pa- lace _|rings, and|heav’n’s high|pa- lace|rings.|
w: dye, _ And|starr’d with spark- ling _|gold, and|starr’d with spark- ling _|gold, and|starr’d with|spark- ling|gold.|
V:2
 F2 | A2 A2 | G2 G2 | (FE) (DC) | D4 | A2 AG | F2 F2 | F4 | z2 F2 | (FE) (DE) | F2 A2 | G2 (GF) | %12
w: Thy|glo- ries|blaze all|na- * ture _|round,|And strike the|ga- zing|sight,|Through|skies, _ and _|seas, and|so- lid _|
w: E-|ter- nal|wis- dom,|thee _ we _|praise,|Thee the cre-|a- tion|sings;|With|thy _ lov’d _|name, rocks,|hills and _|
w: Thy|hand how|wide it|spread _ the _|sky!|How glo- rious|to be-|hold!|Ting’d|with _ a _|blue of|heav’n- ly _|
 (F2 !fermata!E) z | z4 | z2 z F | GG G(G/F/) | E2 E2 | F2 G2 | E3 E | F4 |] %20
w: ground, _||With|ter- ror and de- *|light, with|ter- ror|and de-|light.|
w: seas _||And|heav’n’s high pa- lace _|rings, and|heav’n’s high|pa- lace|rings.|
w: dye, _||And|starr’d with spark- ling _|gold, and|starr’d with|spark- ling|gold.|
V:3
 d2 | d2 f2 | d2 d2 | (dA) A2 | A4 | d2 dc | B2 ^A2 | B4 | z2 F2 | A2 A2 | d2 d2 | B2 B2 | %12
w: Thy|glo- ries|blaze all|na- * ture|round,|And strike the|ga- zing|sight,|Through|skies, and|seas, and|so- lid|
w: E-|ter- nal|wis- dom,|thee _ we|praise,|Thee the cre-|a- tion|sings;|With|thy lov’d|name, rocks,|hills and|
w: Thy|hand how|wide it|spread _ the|sky!|How glo- rious|to be-|hold!|Ting’d|with a|blue of|heav’n- ly|
 !fermata!A3 z | z4 | z4 | z2 z B | cc c(c/B/) | AA BB | A2 A2 | A4 |] %20
w: ground,|||With|ter- ror and de- *|light, with ter- ror|and de-|light.|
w: seas|||And|heav’n’s high pa- lace _|rings, and heav’n’s high|pa- lace|rings.|
w: dye,|||And|starr’d with spark- ling _|gold, and starr’d with|spark- ling|gold.|
V:4
"^Notes: The order of parts in the source is Tenor - [Alto] - Air - [Bass], with both the Tenor and Alto parts printed in thetreble clef an octave above sounding pitch. Only the first verse of the text is underlaid in the source: foursubsequent verses have been added editorially." D,2 | %1
w: Thy|
w: E-|
w: Thy|
"^6" F,2 D,2 | G,2"^7" E,2 |"^86""^75" A,2"^64""^53" A,,2 | D,4 | D,2 D,"^6"E, | %6
w: glo- ries|blaze all|na- ture|round,|And strike the|
w: ter- nal|wis- dom,|thee we|praise,|Thee the cre-|
w: hand how|wide it|spread the|sky!|How glo- rious|
"^64" F,2"^5#" F,2 | B,,4 | z2 D,2 |"^53""^42" D,2"^83""^94" D,2 | D,2"^6" F,2 | %11
w: ga- zing|sight,|Through|skies, and|seas, and|
w: a- tion|sings;|With|thy lov’d|name, rocks,|
w: to be-|hold!|Ting’d|with a|blue of|
 G,2"^86""^75" G,2 |"^64" !fermata!A,3"^53" z | z2 z A, | B,B, B,(B,/A,/) |"^6" G,3 G, | %16
w: so- lid|ground,|With|ter- ror and de- *|light, with|
w: hills and|seas|And|heav’n’s high pa- lace _|rings, and|
w: heav’n- ly|dye,|And|starr’d with spark- ling _|gold, and|
 A,A, A,(A,/G,/) |"^6" F,D,"^6" G,E, | A,2 A,,2 | D,4 |] %20
w: ter- ror and de- *|light, with ter- ror|and de-|light.|
w: heav’n’s high pa- lace _|rings, and heav’n’s high|pa- lace|rings.|
w: starr’d with spark- ling _|gold, and starr’d with|spark- ling|gold.|

